X:310
%%etbk:tnset id:96,pos:2,rep:3x,ant:
%%etbk:tnset id:263,pos:6,rep:2x,ant:
%%etbk:tnset id:508,pos:1,rep:3x,ant:
%%etbk:wsite http://www.thesession.org/tunes/display/29
%%etbk:pldat 2016-06-22T16:08,2016-06-20T18:28,2016-05-05T15:05,2016-05-04T15:12,2016-05-03T17:04,2016-05-02T18:45,2016-04-09T15:38,2016-04-08T18:49,2016-04-07T16:43,2016-04-05T15:22,2016-04-02T14:45,2016-03-31T16:57,2016-03-30T16:54,2016-03-10T18:37,2016-03-08T15:42,2016-03-05T15:32,2016-02-23T17:15,2015-10-28T15:36,2015-10-25T14:01,2015-10-21T16:12,2015-10-13T16:29,2015-10-03T16:35,2015-06-22T18:34,2015-04-21T15:39,2015-03-11T16:25,2015-03-06T16:03,2015-02-10T18:10,2015-01-29T18:27,2014-11-05T18:00,2014-11-02T14:26,2014-10-28T16:54,2014-10-10T16:20,2014-08-21T19:04,2014-08-20T19:21,2014-06-23T18:13,2014-06-13T15:43,2014-06-03T16:01,2014-03-05T18:07,2014-03-01T17:22,2014-02-27T18:27,2014-02-25T17:59,2013-10-29T15:32,2013-10-26T16:16,2013-10-17T18:39,2013-10-13T16:31,2013-10-09T15:18,2013-08-29T15:23
T: Dusty Windowsills, The
Z: Piano Box Version by Martin Fleischmann
H: Created 2013-02-19 /  Last Modified 2013-02-19
M: 6/8
L: 1/8
R: jig
K: Ador
|: "am"!1!A2B !3!cBA | !5!eAB !3!cB!1!A | "G"!2!G{B}GG !1!E!2!GG | !1!D!2!GG !1!E!2!G!2!G | 
"am"!1!A2B !3!cBA | !2!e{g}ed efg | "em"!5!age !1!d!2!B!1!G | "am"!1!ABA A3:|
|: "am"!5!a2a age | "G"!1!d!2!B!1!d !4!g2g | !4!gag gfe | !1!d!3!B!2!A !1!G!2!F!3!G |
!1!E!3!GG !1!D!3!GG | "am"!1!EF!3!G !1!AB!3!c | "em" !2!Bed !2!B!1!A!2!G | "am"!1!ABA A3:|
|: "am"!1!A2A !5!gA!4!f | !1!A2A !5!e!4!d!2!B | "G"!1!G!2!G!1!G !5!eG!4!d | !1!G2G !5!e!4!d!2!B |
"am"!1!A!2!A!1!A !5!gA!4!f | !1!A2A !2!efg | "em"!5!age !1!d!2!B!1!G | "am"!1!ABA A3:|


